public/assets/visions.svg

<svg width="432" height="491" fill="none" xmlns="http://www.w3.org/2000/svg"><path opacity=".747" fill-rule="evenodd" clip-rule="evenodd" d="m195.923 31.074 2.566 1.26c41.98 20.728 87.415 48.236 113.723 93.272 26.356 45.136 33.586 107.804 37.769 165.393l.252 3.519c4.197 58.647 5.564 111.527-9.658 145.939-15.167 34.386-46.922 50.305-85.86 49.83-38.938-.475-85.107-17.447-124.544-59.187-39.492-41.714-72.254-108.195-96.456-175.875C9.513 187.544-6.14 118.793 2.317 73.108 10.88 27.499 43.545 5.083 79.162.779c35.56-4.28 74.126 9.526 116.761 30.295Z" fill="#CEE5D0" fill-opacity=".5"/><path fill-rule="evenodd" clip-rule="evenodd" d="M253.202 92.507c97.688-4.941 141.77 65.811 144.621 97.413 1.98 21.937-10.62 47.222-10.62 66.824 0 10.006 11.909 31.487 6.365 46.07-12.34 32.459-38.468 68.483-71.764 68.483-33.295 0-76.627 9.472-113.417-44.715-3.452-5.085-47.113-33.982-51.355-61.44-10.565-68.397 26.466-169.108 96.17-172.635Z" fill="#694D3D"/><path fill-rule="evenodd" clip-rule="evenodd" d="M248.597 48.475c3.493-4.11 9.39-5.755 14.63-5.437 7.612.465 14.231 5.298 21.804 5.656 7.94.378 15.603-2.453 23.563-1.14 4.879.808 9.713 3.135 12.838 7.06 10.828-3.189 22.584 1.035 29.48 10.257 8.508-1.36 17.763 4.436 20.366 12.868 10.809.358 21.011 9.289 22.217 20.48 4.318 1.174 8.069 4.237 10.37 8.287 2.674 4.694 3.119 10.078 2.636 15.369 5.085 2.671 7.669 8.413 8.346 14.486 4.647 3.567 6.664 9.978 5.717 16.031 3.557 2.062 5.395 6.862 5.375 11.145-.019 3.998-1.05 7.539.4 11.397 1.292 3.436 1.756 6.299 1.045 9.899l-.072.35c-.126.587-.232 1.15-.326 1.705a10.425 10.425 0 0 1 2.387 3.223c2.229 4.628 1.897 9.906.197 14.599.745 2.989.65 6.146-.45 9.019 2.06 3.053 3.144 6.798 2.825 10.683a17.598 17.598 0 0 1-5.216 11.125c.78 5.941-1.569 12.361-5.815 16.545.602 3.557.082 7.285-1.809 10.657-1.349 2.403-3.164 4.193-5.258 5.441a17.932 17.932 0 0 1-.834 6.047c-.891 2.822-2.4 5.421-4.387 7.515 1.186 7.795-3.352 16.445-11.338 18.632a7.91 7.91 0 0 1-1.924.282c-.793 7.497-2.526 14.891-5.208 21.913-6.819 17.88-19.219 33.513-35.39 43.266-7.998 4.82-16.982 8.121-26.154 9.5-6.6.995-12.948.75-19.573.073-8.315-.855-16.667-2.135-24.749-4.336l-1.3-.355c-3.351-.923-6.883-1.989-9.786-3.848-3.248-2.082-4.936-5.291-5.684-9.07-.417-2.103.878-4.365 3.117-4.409h.144c.49.011.975-.008 1.467-.04l.37-.026h.019c.026-.007.039-.007.064-.007.219-.033.432-.099.645-.132 2.462-.427 4.616-.004 6.928.788l.29.1c3.893 1.379 7.754 2.659 11.775 3.607 4.158.975 8.366 1.75 12.588 2.36l.419.053.128.02.065.007c.013 0 .026 0 .039.006l1.243.159c.981.12 1.96.226 2.939.332 1.805.186 3.61.331 5.414.438 31.149 1.803 57.31-23.424 65.205-53.669 2.862-10.946 3.048-21.866 2.204-32.792a7.97 7.97 0 0 1-.425-2.645c0-.504.026-1.001.058-1.505-1.05-10.568-2.874-21.143-4.016-31.751-1.333-12.391-2.075-24.855-1.804-37.326.135-6.159.773-12.259 1.611-18.358l.303-2.191a20.559 20.559 0 0 1-10.11-5.281c-6.083 3.613-13.955 3.933-19.959.118-6.729 4.34-16.13 4.734-22.905.49-4.096 3.008-9.256 4.305-14.321 3.164-2.278-.514-4.543-1.624-6.483-3.162a17.985 17.985 0 0 1-4.184.274l-.288.166c-3.216 1.744-6.779 2.891-10.446 2.763-2.714-.094-5.511-.645-8.1-1.687-2.765 1.717-5.792 2.889-9.03 3.31-4.729.613-9.832-.463-13.765-3.222-7.186 4.211-16.026 4.859-23.784 2.03-1.588 2.768-3.787 5.154-6.361 6.994a15.02 15.02 0 0 1 .449 5.252c-.26 2.867-.959 5.437-2.102 7.745 1.205 2.578 1.567 5.743.893 8.92-.961 4.531-3.523 8.473-6.841 11.542-.293 7.231-4.148 14.011-10.421 17.777-.318.19-.634.345-.949.485-.277.39-.608.733-.987 1.022-3.989 3.792-10.303 3.49-15.304 1.348-.096.005-.192.013-.29.015-1.786.047-3.004-.67-3.726-1.724-.728.041-1.45.12-2.178.259-2.656.51-5.569 1.492-7.973 2.765-6.239 3.301-9.126 9.136-9.99 16.15-.94 7.651 1.199 15.448 6.955 20.626 2.796 2.519 6.373 4.097 10.008 4.76 4.016.736 8.308-1.074 11.273 2.473.593.703.999 1.684.677 2.632-1.006 2.957-2.662 4.091-5.253 4.502 3.744 4.568 7.586 8.983 11.839 13.087 4.602 4.449 9.359 8.758 13.51 13.664 4.388 5.191 8.352 10.694 11.104 16.993 1.573 3.62 2.836 7.352 4.196 11.058l.243.646c1.517 3.938 3.535 7.733 1.201 11.845-.929 1.618-3.03 3.182-4.963 2.924-5.446-.716-7.27-4.502-8.946-9.435-1.263-3.726-2.23-7.558-3.589-11.251a43.202 43.202 0 0 0-.823-2.033c-3.14.9-6.592.186-9.394-1.656a22.21 22.21 0 0 1-9.516 1.988c-4.29-.077-8.209-1.303-11.579-3.514-.268-.073-.537-.143-.804-.222-5.126 2.019-11.129 1.658-15.77-1.615a17.064 17.064 0 0 1-6.228-8.098c-3.883-.076-7.725-1.493-10.507-4.326-2.555-2.602-4.048-5.958-4.491-9.446-3.343-.681-6.476-2.343-8.934-5.143-2.052-2.339-3.299-5.317-3.721-8.409-4.07-1.195-7.741-3.929-9.746-7.741-1.866-3.549-2.136-7.399-1.223-10.901l-.237-.35c-4.193-2.257-7.393-5.953-7.721-11.232a13.454 13.454 0 0 1 .46-4.429c-.143-1.591-.051-3.18.354-4.719-5.639-5.642-7.682-14.705-4.621-22.196-5.51-6.1-6.967-15.746-2.926-22.986-2.771-3.448-4.196-7.843-3.957-12.537.296-5.861 2.906-10.979 6.032-15.72-2.32-2.639-3.557-6.318-3.466-9.872.128-5.151 2.79-9.587 6.122-13.26-2.907-9.069.341-18.908 7.476-24.65-1.444-2.446-1.979-5.476-1.508-8.545.825-5.364 4.737-9.017 8.958-11.908-.883-2.956-.651-6.146.755-9.202 1.875-4.077 5.413-6.663 9.106-8.851.954-9.043 10.777-16.767 19.013-12.1-2.043-6.729 3.842-13.995 10.61-14.764 3.312-10.33 14.739-16.84 25.012-14.274 5.253-7.386 15.03-10.23 23.331-7.061 9.127-7.194 20.45-8.261 31.13-4.608ZM183.586 251.29c6.412-.358 11.22 5.026 14.598 9.952 3.171 4.621-4.963 9.5-7.335 4.409-.851-1.817-1.817-3.74-3.113-5.331-.217.314-.409.638-.601.971l-.192.335c-.141.246-.29.498-.412.756.013.047-.181.657-.187.683-.528 1.651-1.682 2.712-3.254 3.282-2.031.729-3.952-.842-4.602-2.685-1.037-2.944 1.372-5.51 3.879-6.677-2.462-.411-4.885.451-6.664 2.4-.244.272-.657.054-.669-.285-.207-4.621 4.491-7.584 8.552-7.81Z" fill="#000"/><path fill-rule="evenodd" clip-rule="evenodd" d="m347.667 310.825.447-.106c3.568-.864 7.001-2.038 10.325.232 3.167 2.162 3.606 6.161 1.139 9.078-2.536 2.999-5.904 2.831-9.46 2.872l-.222.003c-2.952.042-5.954-.003-8.894-.272a82.92 82.92 0 0 1-8.211-1.176l-1.602-.323c-1.638-.34-3.25-.782-4.094-2.409-1.471-2.836 9.464-5.061 10.793-5.45 3.224-.944 6.509-1.688 9.779-2.449ZM353.732 276.634c-1.743 1.856-4.046 3.124-6.631 3.913-6.496 1.983-14.785.926-20.091-1.094-1.101-.419-2.13-1.274-2.721-2.342-.539-.976-.722-2.123-.311-3.294.117-.332.259-.659.402-.98.389-.875 1.183-1.555 2.114-1.944.968-.404 2.068-.487 2.951-.202l.364.118c3.362 1.088 8.876 2.889 13.444 2.54 2.741-.209 5.152-1.203 6.399-3.778.657-1.358.475-2.701-.107-3.93-.879-1.854-2.64-3.467-4.123-4.578-2.09-1.567-4.32-2.193-6.626-2.853a57.71 57.71 0 0 1-2.638-.803 1.58 1.58 0 0 1-.741-.548 1.829 1.829 0 0 1-.354-.862c-.04-.318.01-.635.153-.907a1.38 1.38 0 0 1 .664-.622c4.512-2.075 10.347-.704 14.752 2.561 2.202 1.631 4.038 3.727 5.169 6.069 1.051 2.174 1.497 4.559 1.085 6.991-.46 2.722-1.583 4.873-3.154 6.545ZM279.782 230.331c1.267-.573 2.309 2.111 2.57 2.843l.54 1.519c.88 2.448 1.891 4.938 3.742 6.755 1.549 1.521 4.032 2.811 5.829 1.031 1.705-1.689.874-3.591 1.125-5.663.454-3.747 5.431-7.492 8.424-3.582 6.761 8.835-3.699 21.122-13.334 18.966-4.9-1.096-8.845-5.13-10.465-9.926l-.084-.253c-.97-3.038-1.951-10.058 1.653-11.69ZM367.028 236.484l-.047-.112c-3.22-7.519 8.267-10.75 9.241-3.999l.062.456c.947 7.494-1.049 17.573-9.992 18.32-10.038.84-14.218-10.657-13.321-19.094.161-1.51 1.946-1.719 2.497-.347l.118.3c1.62 4.24 3.159 12.394 8.87 12.385 3.816-.006 3.634-5.292 2.572-7.909ZM374.311 214.718c5.77-.21 5.762 9.06 0 9.199-19.248.465-38.511 1.083-57.765 1.189l-3.5.022c-18.085.124-36.233.378-54.265-1.18-1.539-.133-1.253-2.351.033-2.262 18.905-2.762 38.041-3.569 57.09-4.619 19.451-1.072 38.94-1.639 58.407-2.349Z" fill="#000"/></svg>

<svg width="432" height="491" viewBox="0 0 432 491" fill="none" xmlns="http://www.w3.org/2000/svg">
<path opacity="0.74707" fill-rule="evenodd" clip-rule="evenodd" d="M195.923 31.0737L198.489 32.3342C240.469 53.0618 285.904 80.5698 312.212 125.606C338.568 170.742 345.798 233.41 349.981 290.999L350.233 294.518C354.43 353.165 355.797 406.045 340.575 440.457C325.408 474.843 293.653 490.762 254.715 490.287C215.777 489.812 169.608 472.84 130.171 431.1C90.6794 389.386 57.9172 322.905 33.7152 255.225C9.51326 187.544 -6.14023 118.793 2.31673 73.1077C10.88 27.4991 43.5448 5.08297 79.1615 0.779218C114.722 -3.50092 153.288 10.3047 195.923 31.0737Z" fill="#CEE5D0" fill-opacity="0.5"/>
<path fill-rule="evenodd" clip-rule="evenodd" d="M253.202 92.5073C350.89 87.5656 394.972 158.318 397.823 189.92C399.803 211.857 387.203 237.142 387.203 256.744C387.203 266.75 399.112 288.231 393.568 302.814C381.228 335.273 355.1 371.297 321.804 371.297C288.509 371.297 245.177 380.769 208.387 326.582C204.935 321.497 161.274 292.6 157.032 265.142C146.467 196.745 183.498 96.0335 253.202 92.5073Z" fill="#694D3D"/>
<path fill-rule="evenodd" clip-rule="evenodd" d="M248.597 48.475C252.09 44.3644 257.987 42.7202 263.227 43.0384C270.839 43.5025 277.458 48.3357 285.031 48.6937C292.971 49.0716 300.634 46.2407 308.594 47.5534C313.473 48.3622 318.307 50.6893 321.432 54.6142C332.26 51.4253 344.016 55.6485 350.912 64.8707C359.42 63.5116 368.675 69.3067 371.278 77.7393C382.087 78.0973 392.289 87.0278 393.495 98.219C397.813 99.3925 401.564 102.456 403.865 106.506C406.539 111.2 406.984 116.584 406.501 121.875C411.586 124.546 414.17 130.288 414.847 136.361C419.494 139.928 421.511 146.339 420.564 152.392C424.121 154.454 425.959 159.254 425.939 163.537C425.92 167.535 424.889 171.076 426.339 174.934C427.631 178.37 428.095 181.233 427.384 184.833L427.312 185.183C427.186 185.77 427.08 186.333 426.986 186.888C427.948 187.756 428.762 188.845 429.373 190.111C431.602 194.739 431.27 200.017 429.57 204.71C430.315 207.699 430.22 210.856 429.12 213.729C431.18 216.782 432.264 220.527 431.945 224.412C431.588 228.762 429.657 232.657 426.729 235.537C427.509 241.478 425.16 247.898 420.914 252.082C421.516 255.639 420.996 259.367 419.105 262.739C417.756 265.142 415.941 266.932 413.847 268.18C413.916 270.164 413.655 272.193 413.013 274.227C412.122 277.049 410.613 279.648 408.626 281.742C409.812 289.537 405.274 298.187 397.288 300.374C396.617 300.558 395.977 300.642 395.364 300.656C394.571 308.153 392.838 315.547 390.156 322.569C383.337 340.449 370.937 356.082 354.766 365.835C346.768 370.655 337.784 373.956 328.612 375.335C322.012 376.33 315.664 376.085 309.039 375.408C300.724 374.553 292.372 373.273 284.29 371.072L282.99 370.717C279.639 369.794 276.107 368.728 273.204 366.869C269.956 364.787 268.268 361.578 267.52 357.799C267.103 355.696 268.398 353.434 270.637 353.39L270.781 353.39C271.271 353.401 271.756 353.382 272.248 353.35L272.618 353.324H272.637C272.663 353.317 272.676 353.317 272.701 353.317C272.92 353.284 273.133 353.218 273.346 353.185C275.808 352.758 277.962 353.181 280.274 353.973L280.564 354.073C284.457 355.452 288.318 356.732 292.339 357.68C296.497 358.655 300.705 359.43 304.927 360.04L305.346 360.093L305.474 360.113L305.539 360.12C305.552 360.12 305.565 360.12 305.578 360.126L306.821 360.285C307.802 360.405 308.781 360.511 309.76 360.617C311.565 360.803 313.37 360.948 315.174 361.055C346.323 362.858 372.484 337.631 380.379 307.386C383.241 296.44 383.427 285.52 382.583 274.594C382.312 273.799 382.151 272.917 382.158 271.949C382.158 271.445 382.184 270.948 382.216 270.444C381.166 259.876 379.342 249.301 378.2 238.693C376.867 226.302 376.125 213.838 376.396 201.367C376.531 195.208 377.169 189.108 378.007 183.009L378.31 180.818C374.524 180.058 371.003 178.211 368.2 175.537C362.117 179.15 354.245 179.47 348.241 175.655C341.512 179.995 332.111 180.389 325.336 176.145C321.24 179.153 316.08 180.45 311.015 179.309C308.737 178.795 306.472 177.685 304.532 176.147C303.147 176.399 301.743 176.496 300.348 176.421L300.06 176.587C296.844 178.331 293.281 179.478 289.614 179.35C286.9 179.256 284.103 178.705 281.514 177.663C278.749 179.38 275.722 180.552 272.484 180.973C267.755 181.586 262.652 180.51 258.719 177.751C251.533 181.962 242.693 182.61 234.935 179.781C233.347 182.549 231.148 184.935 228.574 186.775C229.035 188.474 229.182 190.285 229.023 192.027C228.763 194.894 228.064 197.464 226.921 199.772C228.126 202.35 228.488 205.515 227.814 208.692C226.853 213.223 224.291 217.165 220.973 220.234C220.68 227.465 216.825 234.245 210.552 238.011C210.234 238.201 209.918 238.356 209.603 238.496C209.326 238.886 208.995 239.229 208.616 239.518C204.627 243.31 198.313 243.008 193.312 240.866C193.216 240.871 193.12 240.879 193.022 240.881C191.236 240.928 190.018 240.211 189.296 239.157C188.568 239.198 187.846 239.277 187.118 239.416C184.462 239.926 181.549 240.908 179.145 242.181C172.906 245.482 170.019 251.317 169.155 258.331C168.215 265.982 170.354 273.779 176.11 278.957C178.906 281.476 182.483 283.054 186.118 283.717C190.134 284.453 194.426 282.643 197.391 286.19C197.984 286.893 198.39 287.874 198.068 288.822C197.062 291.779 195.406 292.913 192.815 293.324C196.559 297.892 200.401 302.307 204.654 306.411C209.256 310.86 214.013 315.169 218.164 320.075C222.552 325.266 226.516 330.769 229.268 337.068C230.841 340.688 232.104 344.42 233.464 348.126L233.707 348.772C235.224 352.71 237.242 356.505 234.908 360.617C233.979 362.235 231.878 363.799 229.945 363.541C224.499 362.825 222.675 359.039 220.999 354.106C219.736 350.38 218.769 346.548 217.41 342.855C217.155 342.172 216.878 341.495 216.587 340.822C213.447 341.722 209.995 341.008 207.193 339.166C204.198 340.531 200.881 341.212 197.677 341.154C193.387 341.077 189.468 339.851 186.098 337.64C185.83 337.567 185.561 337.497 185.294 337.418C180.168 339.437 174.165 339.076 169.524 335.803C166.518 333.684 164.464 330.855 163.296 327.705C159.413 327.629 155.571 326.212 152.789 323.379C150.234 320.777 148.741 317.421 148.298 313.933C144.955 313.252 141.822 311.59 139.364 308.79C137.312 306.451 136.065 303.473 135.643 300.381C131.573 299.186 127.902 296.452 125.897 292.64C124.031 289.091 123.761 285.241 124.674 281.739L124.437 281.389C120.244 279.132 117.044 275.436 116.716 270.157C116.623 268.654 116.78 267.151 117.176 265.728C117.033 264.137 117.125 262.548 117.53 261.009C111.891 255.367 109.848 246.304 112.909 238.813C107.399 232.713 105.942 223.067 109.983 215.827C107.212 212.379 105.787 207.984 106.026 203.29C106.322 197.429 108.932 192.311 112.058 187.57C109.738 184.931 108.501 181.252 108.592 177.698C108.72 172.547 111.382 168.111 114.714 164.438C111.807 155.369 115.055 145.53 122.19 139.788C120.746 137.342 120.211 134.312 120.682 131.243C121.507 125.879 125.419 122.226 129.64 119.335C128.757 116.379 128.989 113.189 130.395 110.133C132.27 106.056 135.808 103.47 139.501 101.282C140.455 92.2389 150.278 84.5151 158.514 89.1825C156.471 82.4532 162.356 75.1868 169.124 74.4177C172.436 64.0884 183.863 57.5778 194.136 60.1436C199.389 52.7579 209.166 49.9143 217.467 53.0827C226.594 45.8893 237.917 44.8219 248.597 48.475ZM183.586 251.29C189.998 250.932 194.806 256.316 198.184 261.242C201.355 265.863 193.221 270.742 190.849 265.651C189.998 263.834 189.032 261.911 187.736 260.32C187.519 260.634 187.327 260.958 187.135 261.291L186.943 261.626C186.802 261.872 186.653 262.124 186.531 262.382C186.544 262.429 186.35 263.039 186.344 263.065C185.816 264.716 184.662 265.777 183.09 266.347C181.059 267.076 179.138 265.505 178.488 263.662C177.451 260.718 179.86 258.152 182.367 256.985C179.905 256.574 177.482 257.436 175.703 259.385C175.459 259.657 175.046 259.439 175.034 259.1C174.827 254.479 179.525 251.516 183.586 251.29Z" fill="black"/>
<path fill-rule="evenodd" clip-rule="evenodd" d="M347.667 310.825L348.114 310.719C351.682 309.855 355.115 308.681 358.439 310.951C361.606 313.113 362.045 317.112 359.578 320.029C357.042 323.028 353.674 322.86 350.118 322.901L349.896 322.904C346.944 322.946 343.942 322.901 341.002 322.632C338.26 322.382 335.501 321.981 332.791 321.456L331.189 321.133C329.551 320.793 327.939 320.351 327.095 318.724C325.624 315.888 336.559 313.663 337.888 313.274C341.112 312.33 344.397 311.586 347.667 310.825Z" fill="black"/>
<path fill-rule="evenodd" clip-rule="evenodd" d="M353.732 276.634C351.989 278.49 349.686 279.758 347.101 280.547C340.605 282.53 332.316 281.473 327.01 279.453C325.909 279.034 324.88 278.179 324.289 277.111C323.75 276.135 323.567 274.988 323.978 273.817C324.095 273.485 324.237 273.158 324.38 272.837C324.769 271.962 325.563 271.282 326.494 270.893C327.462 270.489 328.562 270.406 329.445 270.691C329.563 270.729 329.685 270.769 329.809 270.809C333.171 271.897 338.685 273.698 343.253 273.349C345.994 273.14 348.405 272.146 349.652 269.571C350.309 268.213 350.127 266.87 349.545 265.641C348.666 263.787 346.905 262.174 345.422 261.063C343.332 259.496 341.102 258.87 338.796 258.21C337.927 257.961 337.047 257.708 336.158 257.407C335.865 257.307 335.609 257.112 335.417 256.859C335.227 256.609 335.102 256.303 335.063 255.997C335.023 255.679 335.073 255.362 335.216 255.09C335.349 254.836 335.562 254.614 335.88 254.468C340.392 252.393 346.227 253.764 350.632 257.029C352.834 258.66 354.67 260.756 355.801 263.098C356.852 265.272 357.298 267.657 356.886 270.089C356.426 272.811 355.303 274.962 353.732 276.634Z" fill="black"/>
<path fill-rule="evenodd" clip-rule="evenodd" d="M279.782 230.331C281.049 229.758 282.091 232.442 282.352 233.174L282.892 234.693C283.772 237.141 284.783 239.631 286.634 241.448C288.183 242.969 290.666 244.259 292.463 242.479C294.168 240.79 293.337 238.888 293.588 236.816C294.042 233.069 299.019 229.324 302.012 233.234C308.773 242.069 298.313 254.356 288.678 252.2C283.778 251.104 279.833 247.07 278.213 242.274L278.129 242.021C277.159 238.983 276.178 231.963 279.782 230.331Z" fill="black"/>
<path fill-rule="evenodd" clip-rule="evenodd" d="M367.028 236.484L366.981 236.372C363.761 228.853 375.248 225.622 376.222 232.373L376.284 232.829C377.231 240.323 375.235 250.402 366.292 251.149C356.254 251.989 352.074 240.492 352.971 232.055C353.132 230.545 354.917 230.336 355.468 231.708L355.586 232.008C357.206 236.248 358.745 244.402 364.456 244.393C368.272 244.387 368.09 239.101 367.028 236.484Z" fill="black"/>
<path fill-rule="evenodd" clip-rule="evenodd" d="M374.311 214.718C380.081 214.508 380.073 223.778 374.311 223.917C355.063 224.382 335.8 225 316.546 225.106L313.046 225.128C294.961 225.252 276.813 225.506 258.781 223.948C257.242 223.815 257.528 221.597 258.814 221.686C277.719 218.924 296.855 218.117 315.904 217.067C335.355 215.995 354.844 215.428 374.311 214.718Z" fill="black"/>
</svg>
